svgs/sharp-solid/chess-clock-flip.svg

<svg xmlns="http://www.w3.org/2000/svg" viewBox="0 0 640 512"><!--! Font Awesome Pro 6.4.2 by @fontawesome - https://fontawesome.com License - https://fontawesome.com/license (Commercial License) Copyright 2023 Fonticons, Inc. --><path d="M384 32H544V80H488v48H640V480H0V128H96V96H256v32H440V80H384V32zM288 304A112 112 0 1 0 64 304a112 112 0 1 0 224 0zm-41.4-48l-11.3 11.3-48 48L176 326.6 153.4 304l11.3-11.3 48-48L224 233.4 246.6 256zM464 416a112 112 0 1 0 0-224 112 112 0 1 0 0 224zm16-176v64 16H448V304 240 224h32v16z"/></svg>

<svg xmlns="http://www.w3.org/2000/svg" viewBox="0 0 640 512"><!--! Font Awesome Pro 6.6.0 by @fontawesome - https://fontawesome.com License - https://fontawesome.com/license (Commercial License) Copyright 2024 Fonticons, Inc. --><path d="M384 32l160 0 0 48-56 0 0 48 152 0 0 352L0 480 0 128l96 0 0-32 160 0 0 32 184 0 0-48-56 0 0-48zM288 304A112 112 0 1 0 64 304a112 112 0 1 0 224 0zm-41.4-48l-11.3 11.3-48 48L176 326.6 153.4 304l11.3-11.3 48-48L224 233.4 246.6 256zM464 416a112 112 0 1 0 0-224 112 112 0 1 0 0 224zm16-176l0 64 0 16-32 0 0-16 0-64 0-16 32 0 0 16z"/></svg>
